X:2914
T:Jack's Maggot
O:england
M:C|
L:1/8
B:The Round Band Book of Playford
K:D
dc | "D"d2D2 F2A2 | "G"BABc "A"d2e2 | \
"D"fga2 "G"Bcd2 | "Em7"e3f "A7"e2c2 | \
"D"d2D2 F2A2 | "G"Bcd2 "A"c2ag | \
"D"f2d2 "A7"e2c2 | "D"d4- d2 :: \
fg | "D"a2 f4 a2 | "Bm"f2 d4 ef | \
"Em"gfed c2 d2 | "A7"e6 fg | \
"D"a2f2 d2 f2 | "D"A2d2 F2A2 | \
"A7"d3e e3d | "D"d6 :|


